static/images/vote-icon.svg

<svg height="83" viewBox="0 0 114 83" width="114" xmlns="http://www.w3.org/2000/svg"><g fill="none" fill-rule="evenodd"><g stroke="#686868" stroke-linecap="round" stroke-linejoin="round" stroke-width="2" transform="translate(1 1)"><path d="m49.638 37.43c.0185409-2.8775835 2.3464201-5.2059083 5.224-5.225h15.8702345v-18.925c.006245-.6554583-.2512731-1.2859581-.7147747-1.7494598-.4635017-.4635016-1.0940015-.7210197-1.7494598-.7147943h-54.8c-.6556308-.0064958-1.2863902.2509028-1.7501098.7144342-.4637196.4635315-.7213741 1.0941864-.7151249 1.7498199v35.88c-.0062492.6556335.2514053 1.2862884.7151249 1.7498199.4637196.4635314 1.094479.72093 1.7501098.7144342h54.8c.6554583.0062254 1.2859581-.2512927 1.7494598-.7147943.4635016-.4635017.7210197-1.0940015.7147747-1.7494598v-6.7h-15.8702345c-1.3671681.0522035-2.6966532-.4545395-3.6822186-1.4035046-.9855653-.9489651-1.5422339-2.2583311-1.5417814-3.6264954z"/><path d="m111.342 18.604-20.6-6.506c-3.943-12.028-17.743-11.82841373-17.743-11.82841373h-23.559c-9.364 0-10.941 10.54741373-10.941 10.54741373h29.768c.6556335-.0064839 1.2862884.2511706 1.7498199.7148902.4635314.4637196.72093 1.094479.7141801 1.7501098v18.925h-15.87c-2.8854117 0-5.2245 2.3390883-5.2245 5.2245s2.3390883 5.2245 5.2245 5.2245h21.588c4.928 0 6.012-3.647 7-6.407l19.911 6.407z"/><path d="m5.872 42.556h-5.224v38.429h82.306"/><path d="m6.365 51.723h83.39"/></g><g fill="#686868" fill-rule="nonzero"><g transform="translate(10.653 60.912)"><path d="m14.064 7.194c-.016-2.39.578-4.374 2.39-5.827 3.515-2.828 9.342-1.047 10.5 3.3.7534495 2.3176462.4143096 4.85199935-.922 6.89-1.469 2.14-3.671 2.7-6.109 2.5-4.172-.379-5.953-3.55-5.859-6.863zm6.593 4.7c1.6796449.0767109 3.1731393-1.0604676 3.546-2.7.2628246-1.21098933.3155925-2.45813785.156-3.687-.2078079-1.79791972-1.6838585-3.18275293-3.4913645-3.27560427-1.807506-.09285133-3.4176898 1.13344244-3.8086355 2.90060427-.4339827 1.42452868-.3790702 2.95327958.156 4.343.4741101 1.4880525 1.8812561 2.4782057 3.442 2.422z"/><path d="m43.529 2.398v3.39h3.218c.906 0 1.828-.016 2.734.016.2398697-.01785714.4759627.06747984.6489798.23457691s.2665187.40007726.2570202.64042309c.031.562-.172.984-.781 1.047-.594.062-1.187.078-1.781.094-1.406.016-2.812 0-4.265 0v3.859c.25.016.531.031.812.031 1.875 0 3.75 0 5.624.016.562 0 1.047.172 1.156.8.1018491.3054894.0442643.6416692-.1534509.8958457-.1977151.2541766-.5093914.3927074-.8305491.3691543-2.7.031-5.421.016-8.124 0-.3342922.0190705-.6604526-.1076167-.8942261-.3473351-.2337734-.2397185-.3522316-.5689569-.3247739-.9026649-.016-3.64-.016-7.3 0-10.936-.0245051-.34960177.1081901-.69191646.3619251-.93366099.2537351-.24174453.6020677-.35772613.9500749-.31633901 2.578-.031 5.156-.016 7.733 0 .2903219-.03801174.5824767.05537647.7969213.25473842s.328854.48394279.3120787.77626158c.002915.2915568-.121564.56986528-.340839.76204318-.219275.19217791-.5115046.27908296-.800161.23795682-1.8.016-3.593 0-5.39 0-.309.012-.59.012-.919.012z"/><path d="m7.034 10.757c1.04666667-3.10866667 2.09866667-6.21766667 3.156-9.327.062-.172.109-.344.187-.516.2067402-.62227132.8746946-.96337334 1.5-.766.3376919.07328141.6274033.28857888.7949741.59078086s.1967345.66197291.0800259.98721914c-.5 1.484-1.047 2.968-1.594 4.453-.781 2.14-1.562 4.281-2.375 6.405-.5 1.312-1.656 1.89-2.687 1.281-.52333422-.3632925-.92594629-.8749163-1.156-1.469-.812-2-1.515-4.031-2.25-6.046-.53-1.447-1.077-2.92-1.593-4.389-.18297322-.39756863-.15749395-.85989747.06805907-1.23495193.22555303-.37505446.62198865-.61429483 1.05894093-.63904807.8-.047 1.17.453 1.4 1.109.687 2.015 1.375 4.015 2.062 6.03.391 1.172.8 2.343 1.187 3.515.0523818.0143667.10681517.0197763.161.016z"/><path d="m32.046 2.536h-2.984c-.937 0-1.375-.359-1.39-1.094 0-.734.422-1.109 1.375-1.109h8.671c.937 0 1.406.375 1.406 1.094 0 .7-.484 1.109-1.39 1.109-.953.016-1.922 0-2.984 0v9.561c.0101844.2334301.0048392.467279-.016.7-.0587154.7368181-.6830719 1.2992658-1.422 1.281-.3599103-.011741-.6983797-.1739615-.9329812-.4471563-.2346016-.2731948-.3438059-.632293-.3010188-.9898437-.016-3.015-.016-6.046-.016-9.061-.016-.291-.016-.604-.016-1.044z"/></g><g transform="translate(21.489 22.399)"><path d="m0 11.15v-7.28c-.03356836-.37965161.103527-.75455507.37408939-1.02299161s.6465356-.4025704 1.02591061-.36600839h9.162c.224 0 .443-.00591901.667 0 .5636579.02547896 1.0320898.44297612 1.122 1 .1409918.58682151-.195638 1.18280027-.771 1.365-.2293636.07453851-.4688344.11332604-.71.115-2.63333333.012-5.26266667.016-7.888.012-.449 0-.485.03-.485.485v11.408c0 .479.012.485.5.485h11.403c.467 0 .467 0 .473-.467 0-2.287.006-4.569 0-6.856-.0150048-.37711772.1303172-.74296576.4-1.007.3582676-.35395109.9016901-.44150918 1.353-.218.4380099.17496063.7276385.59638211.734 1.068.03.473.012.953.012 1.426v7.1c.0172939.367287-.1016465.7280252-.334 1.013-.2766217.3039538-.675703.4667467-1.086.443-3.1853333.006-6.37066667.008-9.556.006-1.62 0-3.234-.012-4.854 0-.59838338.0542684-1.17217712-.2506822-1.462-.777-.06767989-.1574528-.09483982-.3293511-.079-.5-.00066667-2.4806667-.001-4.958-.001-7.432z"/><path d="m8.962 11.265c.425-.516.819-1 1.213-1.48.91-1.12866667 1.816-2.262 2.718-3.4 1.05-1.317 2.093-2.633 3.143-3.95.528-.663 1.056-1.32 1.608-1.963.2506884-.32264208.6463473-.49823312 1.0537883-.46766499s.7724708.26322959.9722117.61966499c.2321051.51574137.1447817 1.11920867-.224 1.548-1.42 1.766-2.846 3.531-4.259 5.3-1.547 1.929-3.082 3.859-4.629 5.782-.3696194.4885588-.77293555.950685-1.207 1.383-.53904933.3705672-1.27557871.2411408-1.656-.291-.34-.595-.643-1.207-.953-1.814-.43666667-.8613333-.86733333-1.725-1.292-2.591-.158-.328-.315-.655-.443-1-.1157632-.53690795.12989153-1.08689934.607-1.359.34164462-.17163262.74131056-.18506478 1.09370786-.03675784.35239729.14830694.62218618.44348019.73829214.80775784.437.928.922 1.832 1.389 2.742.024.055.06.085.127.17z"/></g></g></g></svg>

<?xml version="1.0" encoding="UTF-8"?>
<svg width="114px" height="83px" viewBox="0 0 114 83" version="1.1" xmlns="http://www.w3.org/2000/svg" xmlns:xlink="http://www.w3.org/1999/xlink">
    <!-- Generator: Sketch 63.1 (92452) - https://sketch.com -->
    <title>contribute-on-chain-voting</title>
    <desc>Created with Sketch.</desc>
    <g id="Page-1" stroke="none" stroke-width="1" fill="none" fill-rule="evenodd">
        <g id="contribute-on-chain-voting" transform="translate(1.000000, 1.000000)">
            <path d="M49.638,37.43 C49.6565409,34.5524165 51.9844201,32.2240917 54.862,32.205 L70.7322345,32.205 L70.7322345,13.28 C70.7384795,12.6245417 70.4809614,11.9940419 70.0174598,11.5305402 C69.5539581,11.0670386 68.9234583,10.8095205 68.268,10.8157459 L13.468,10.8157459 C12.8123692,10.8092501 12.1816098,11.0666487 11.7178902,11.5301801 C11.2541706,11.9937116 10.9965161,12.6243665 11.0027653,13.28 L11.0027653,49.16 C10.9965161,49.8156335 11.2541706,50.4462884 11.7178902,50.9098199 C12.1816098,51.3733513 12.8123692,51.6307499 13.468,51.6242541 L68.268,51.6242541 C68.9234583,51.6304795 69.5539581,51.3729614 70.0174598,50.9094598 C70.4809614,50.4459581 70.7384795,49.8154583 70.7322345,49.16 L70.7322345,42.46 L54.862,42.46 C53.4948319,42.5122035 52.1653468,42.0054605 51.1797814,41.0564954 C50.1942161,40.1075303 49.6375475,38.7981643 49.638,37.43 L49.638,37.43 Z" id="Path_1424" stroke="#686868" stroke-width="2" stroke-linecap="round" stroke-linejoin="round"></path>
            <path d="M111.342,18.604 L90.742,12.098 C86.799,0.07 72.999,0.26958627 72.999,0.26958627 L49.44,0.26958627 C40.076,0.26958627 38.499,10.817 38.499,10.817 L68.267,10.817 C68.9226335,10.8105161 69.5532884,11.0681706 70.0168199,11.5318902 C70.4803513,11.9956098 70.7377499,12.6263692 70.731,13.282 L70.731,32.207 L54.861,32.207 C51.9755883,32.207 49.6365,34.5460883 49.6365,37.4315 C49.6365,40.3169117 51.9755883,42.656 54.861,42.656 L76.449,42.656 C81.377,42.656 82.461,39.009 83.449,36.249 L103.36,42.656 L111.342,18.604 Z" id="Path_1427" stroke="#686868" stroke-width="2" stroke-linecap="round" stroke-linejoin="round"></path>
            <polyline id="Path_1428" stroke="#686868" stroke-width="2" stroke-linecap="round" stroke-linejoin="round" points="5.872 42.556 0.648 42.556 0.648 80.985 82.954 80.985"></polyline>
            <line x1="6.365" y1="51.723" x2="89.755" y2="51.723" id="Line_859" stroke="#686868" stroke-width="2" stroke-linecap="round" stroke-linejoin="round"></line>
            <g id="Group_2962" transform="translate(9.653000, 59.912000)" fill="#686868" fill-rule="nonzero">
                <path d="M14.064,7.194 C14.048,4.804 14.642,2.82 16.454,1.367 C19.969,-1.461 25.796,0.32 26.954,4.667 C27.7074495,6.9846462 27.3683096,9.51899935 26.032,11.557 C24.563,13.697 22.361,14.257 19.923,14.057 C15.751,13.678 13.97,10.507 14.064,7.194 Z M20.657,11.894 C22.3366449,11.9707109 23.8301393,10.8335324 24.203,9.194 C24.4658246,7.98301067 24.5185925,6.73586215 24.359,5.507 C24.1511921,3.70908028 22.6751415,2.32424707 20.8676355,2.23139573 C19.0601295,2.1385444 17.4499457,3.36483817 17.059,5.132 C16.6250173,6.55652868 16.6799298,8.08527958 17.215,9.475 C17.6891101,10.9630525 19.0962561,11.9532057 20.657,11.897 L20.657,11.894 Z" id="Path_3386"></path>
                <path d="M43.529,2.398 L43.529,5.788 L46.747,5.788 C47.653,5.788 48.575,5.772 49.481,5.804 C49.7208697,5.78614286 49.9569627,5.87147984 50.1299798,6.03857691 C50.3029969,6.20567398 50.3964985,6.43865417 50.387,6.679 C50.418,7.241 50.215,7.663 49.606,7.726 C49.012,7.788 48.419,7.804 47.825,7.82 C46.419,7.836 45.013,7.82 43.56,7.82 L43.56,11.679 C43.81,11.695 44.091,11.71 44.372,11.71 C46.247,11.71 48.122,11.71 49.996,11.726 C50.558,11.726 51.043,11.898 51.152,12.526 C51.2538491,12.8314894 51.1962643,13.1676692 50.9985491,13.4218457 C50.800834,13.6760223 50.4891577,13.8145531 50.168,13.791 C47.468,13.822 44.747,13.807 42.044,13.791 C41.7097078,13.8100705 41.3835474,13.6833833 41.1497739,13.4436649 C40.9160005,13.2039464 40.7975423,12.874708 40.825,12.541 C40.809,8.901 40.809,5.241 40.825,1.605 C40.8004949,1.25539823 40.9331901,0.913083536 41.1869251,0.671339006 C41.4406602,0.429594476 41.7889928,0.313612883 42.137,0.355 C44.715,0.324 47.293,0.339 49.87,0.355 C50.1603219,0.316988264 50.4524767,0.410376466 50.6669213,0.609738418 C50.8813659,0.80910037 50.9957753,1.09368121 50.979,1.386 C50.981915,1.6775568 50.857436,1.95586528 50.638161,2.14804318 C50.418886,2.34022109 50.1266564,2.42712614 49.838,2.386 C48.038,2.402 46.245,2.386 44.448,2.386 C44.139,2.398 43.858,2.398 43.529,2.398 Z" id="Path_3387"></path>
                <path d="M7.034,10.757 C8.08066667,7.64833333 9.13266667,4.53933333 10.19,1.43 C10.252,1.258 10.299,1.086 10.377,0.914 C10.5837402,0.291728677 11.2516946,-0.0493733406 11.877,0.148 C12.2146919,0.221281414 12.5044033,0.436578884 12.6719741,0.73878086 C12.8395449,1.04098284 12.8687086,1.40075377 12.752,1.726 C12.252,3.21 11.705,4.694 11.158,6.179 C10.377,8.319 9.596,10.46 8.783,12.584 C8.283,13.896 7.127,14.474 6.096,13.865 C5.57266578,13.5017075 5.17005371,12.9900837 4.94,12.396 C4.128,10.396 3.425,8.365 2.69,6.35 C2.16,4.903 1.613,3.43 1.097,1.961 C0.914026776,1.56343137 0.939506045,1.10110253 1.16505907,0.726048067 C1.3906121,0.350993606 1.78704772,0.11175324 2.224,0.087 C3.024,0.04 3.394,0.54 3.624,1.196 C4.311,3.211 4.999,5.211 5.686,7.226 C6.077,8.398 6.486,9.569 6.873,10.741 C6.9253818,10.7553667 6.97981517,10.7607763 7.034,10.757 Z" id="Path_3388"></path>
                <path d="M32.046,2.536 L29.062,2.536 C28.125,2.536 27.687,2.177 27.672,1.442 C27.672,0.708 28.094,0.333 29.047,0.333 L37.718,0.333 C38.655,0.333 39.124,0.708 39.124,1.427 C39.124,2.127 38.64,2.536 37.734,2.536 C36.781,2.552 35.812,2.536 34.75,2.536 L34.75,12.097 C34.7601844,12.3304301 34.7548392,12.564279 34.734,12.797 C34.6752846,13.5338181 34.0509281,14.0962658 33.312,14.078 C32.9520897,14.066259 32.6136203,13.9040385 32.3790188,13.6308437 C32.1444172,13.3576489 32.0352129,12.9985507 32.078,12.641 C32.062,9.626 32.062,6.595 32.062,3.58 C32.046,3.289 32.046,2.976 32.046,2.536 Z" id="Path_3389"></path>
            </g>
            <g id="Group_2963" transform="translate(20.489000, 21.399000)" fill="#686868" fill-rule="nonzero">
                <path d="M-8.67361738e-19,11.15 L-8.67361738e-19,3.87 C-0.0335683602,3.49034839 0.103527004,3.11544493 0.374089391,2.84700839 C0.644651779,2.57857185 1.02062499,2.44443799 1.4,2.481 L10.562,2.481 C10.786,2.481 11.005,2.47508099 11.229,2.481 C11.7926579,2.50647896 12.2610898,2.92397612 12.351,3.481 C12.4919918,4.06782151 12.155362,4.66380027 11.58,4.846 C11.3506364,4.92053851 11.1111656,4.95932604 10.87,4.961 C8.23666667,4.973 5.60733333,4.977 2.982,4.973 C2.533,4.973 2.497,5.003 2.497,5.458 L2.497,16.866 C2.497,17.345 2.509,17.351 2.997,17.351 L14.4,17.351 C14.867,17.351 14.867,17.351 14.873,16.884 C14.873,14.597 14.879,12.315 14.873,10.028 C14.8579952,9.65088228 15.0033172,9.28503424 15.273,9.021 C15.6312676,8.66704891 16.1746901,8.57949082 16.626,8.803 C17.0640099,8.97796063 17.3536385,9.39938211 17.36,9.871 C17.39,10.344 17.372,10.824 17.372,11.297 L17.372,18.397 C17.3892939,18.764287 17.2703535,19.1250252 17.038,19.41 C16.7613783,19.7139538 16.362297,19.8767467 15.952,19.853 C12.7666667,19.859 9.58133333,19.861 6.396,19.859 C4.776,19.859 3.162,19.847 1.542,19.859 C0.943616617,19.9132684 0.369822875,19.6083178 0.08,19.082 C0.0123201103,18.9245472 -0.0148398248,18.7526489 0.001,18.582 C0.000333333333,16.1013333 -8.67361738e-19,13.624 -8.67361738e-19,11.15 Z" id="Path_3390"></path>
                <path d="M8.962,11.265 C9.387,10.749 9.781,10.265 10.175,9.785 C11.085,8.65633333 11.991,7.523 12.893,6.385 C13.943,5.068 14.986,3.752 16.036,2.435 C16.564,1.772 17.092,1.115 17.644,0.472 C17.8946884,0.149357915 18.2903473,-0.0262331216 18.6977883,0.00433501126 C19.1052293,0.0349031441 19.4702591,0.267564602 19.67,0.624 C19.9021051,1.13974137 19.8147817,1.74320867 19.446,2.172 C18.026,3.938 16.6,5.703 15.187,7.472 C13.64,9.401 12.105,11.331 10.558,13.254 C10.1883806,13.7425588 9.78506445,14.204685 9.351,14.637 C8.81195067,15.0075672 8.07542129,14.8781408 7.695,14.346 C7.355,13.751 7.052,13.139 6.742,12.532 C6.30533333,11.6706667 5.87466667,10.807 5.45,9.941 C5.292,9.613 5.135,9.286 5.007,8.941 C4.8912368,8.40409205 5.13689153,7.85410066 5.614,7.582 C5.95564462,7.41036738 6.35531056,7.39693522 6.70770786,7.54524216 C7.06010515,7.6935491 7.32989404,7.98872235 7.446,8.353 C7.883,9.281 8.368,10.185 8.835,11.095 C8.859,11.15 8.895,11.18 8.962,11.265 Z" id="Path_3391"></path>
            </g>
        </g>
    </g>
</svg>
